images/matrix.svg

<svg width="305" height="88" viewBox="0 0 305 88" fill="none" xmlns="http://www.w3.org/2000/svg">
<path fill-rule="evenodd" clip-rule="evenodd" d="M117.167 47.1207H103.16L110.038 36.2586L117.167 47.1207ZM234.107 30.8276L245.489 40.5259L257.245 30.8276H262.748L248.615 42.8534L263.123 55.5259H257.745L245.614 45.4397L233.357 55.5259H227.979L242.487 42.9828L228.354 30.8276H234.107ZM215.847 30.8276V55.5259H212.095V30.8276H215.847ZM188.332 30.8276C193.335 31.0862 196.461 33.0259 196.461 37.5517C196.461 41.1724 194.335 42.9828 190.458 44.4052C190.333 44.5345 190.083 44.6638 189.958 44.7931L201.339 55.5259H195.961C192.459 52.2931 188.832 48.8017 185.205 45.4397H184.58L176.7 45.3103V41.6897H185.956C187.206 41.6897 192.834 41.0431 192.834 37.681C192.834 34.9655 189.833 34.5776 188.457 34.5776H173.324L172.948 55.5259H169.321V30.8276H188.332ZM157.69 30.8276V34.5776H145.308V55.5259H141.306V34.5776H128.924V30.8276H157.69ZM111.414 30.8276L127.298 55.5259H122.67C121.795 54.1034 120.794 52.5517 119.669 51H100.533C99.2824 52.2931 98.4069 53.9741 97.4063 55.5259H92.9038L108.788 30.8276H111.414ZM48.6292 30.8276L63.6376 50.7414L78.6459 30.8276H82.2729V55.3966H78.5208V38.1983L78.2707 37.9397L64.8883 55.5259H62.512C58.2596 49.9655 53.8822 44.1466 49.3797 38.3276C49.3797 38.1983 49.1295 37.9397 48.8794 37.9397V55.5259H45.1273V30.8276H48.6292ZM266 21V66H41V21H266Z" fill="black"/>
</svg>

<svg width="220" height="50" xmlns="http://www.w3.org/2000/svg" xmlns:svg="http://www.w3.org/2000/svg" xmlns:xlink="http://www.w3.org/1999/xlink">
 <!-- Created with SVG-edit - https://github.com/SVG-Edit/svgedit-->
 <defs>
  <symbol height="88" id="svg_43" viewBox="0 0 305 88" width="305" xmlns="http://www.w3.org/2000/svg">
   <path clip-rule="evenodd" d="m117.17,47.12l-14.01,0l6.88,-10.86l7.13,10.86zm116.94,-16.29l11.38,9.7l11.76,-9.7l5.5,0l-14.13,12.02l14.5,12.68l-5.37,0l-12.14,-10.09l-12.25,10.09l-5.38,0l14.51,-12.55l-14.14,-12.15l5.76,0zm-18.26,0l0,24.7l-3.76,0l0,-24.7l3.76,0zm-27.52,0c5.01,0.26 8.13,2.2 8.13,6.72c0,3.62 -2.12,5.43 -6,6.86c-0.13,0.12 -0.38,0.25 -0.5,0.38l11.38,10.74l-5.38,0c-3.5,-3.24 -7.13,-6.73 -10.75,-10.09l-0.63,0l-7.88,-0.13l0,-3.62l9.26,0c1.25,0 6.87,-0.65 6.87,-4.01c0,-2.71 -3,-3.1 -4.37,-3.1l-15.14,0l-0.37,20.95l-3.63,0l0,-24.7l19.01,0zm-30.64,0l0,3.75l-12.38,0l0,20.95l-4,0l0,-20.95l-12.39,0l0,-3.75l28.77,0zm-46.28,0l15.89,24.7l-4.63,0c-0.87,-1.43 -1.88,-2.98 -3,-4.53l-19.14,0c-1.25,1.29 -2.12,2.97 -3.12,4.53l-4.51,0l15.89,-24.7l2.62,0zm-62.78,0l15.01,19.91l15.01,-19.91l3.62,0l0,24.57l-3.75,0l0,-17.2l-0.25,-0.26l-13.38,17.59l-2.38,0c-4.25,-5.56 -8.63,-11.38 -13.13,-17.2c0,-0.13 -0.25,-0.39 -0.5,-0.39l0,17.59l-3.75,0l0,-24.7l3.5,0zm217.37,-9.83l0,45l-225,0l0,-45l225,0z" fill="black" fill-rule="evenodd"/>
  </symbol>
 </defs>
 <g class="layer">
  <title>Layer 1</title>
  <use id="svg_44" transform="matrix(0.94995 0 0 0.94995 -20.3134 -2.56129)" x="-16.44" xlink:href="#svg_43" y="-15.22"/>
 </g>
</svg>
